X: 1
T:Kari-Pers polska
C:anon.
O:Sweden?
R:Polska, pols
Z:Transcribed by Frank Nordberg - http://www.musicaviva.com
M:3/4
L:1/8
K:D
"D"A2 A>B A>G|"D"(GF) (F<D) F>A|"D"d2 (d>e) d>c|"G"(cB)B4|
w:0 0 1 0 3 3 2 2 0 2 0 3 3 0 3 2 2 1 1
"A"e2 (e>f) e>d|"A"(dc) (c<A) c>e|"A7"a2 (a>b) a>g|"D"(gf)f4|
w:0 0 1 0 3 3 2 2 0 2 0 3 3 4 3 2 2 1 1
"D"A2 A>B A>G|"D"(GF) (F<D) F>A|"D"d2 (d>e) d>c|"G"(cB)B4|
w:0 0 1 0 3 3 2 2 0 2 0 3 3 0 3 2 2 1 1
"A"e2 (e>f) e>d|"A"(dc) (c<A) c>e|"A7"a>(f g>)(e c)e|"D"d2d4:|
w:0 0 1 0 3 3 2 2 0 2 0 3 1 2 0 2 0 3 3
|:"G"{f}(g>f) (e<^d) e>g|"D"(f>e) (d<c) d>f|"A7"e>(d c<)(A B)c|"D"d>e f<g a>f|
w:1 2 1 0 3 0 2 1 0 3 2 3 1 0 3 2 0 1 2 3 0 1 2 3 1
"G"(g>f) (e<^d) e>g|"D"(f>e) (d<c) d>f|"A7"e>(d c<)(A B)c|"D"d2 d4:|
w:1 2 1 0 3 0 2 1 0 3 2 3 1 0 3 2 0 1 2 3 3
